X:1
T:The Homesick Trapper
M:2/4
L:1/8
K:D
 FG| AA AB| dd de| ff fe| dA AA| Bd dd| ee de| f4| z2| z2 FG| A/2 A3/2 AB|\
 d d2 d/2e/2| ff fe| d/2 A3/2 dd| ee ee| cA Bc| d4-| d2||
